X: 4
T: Prince’s Feather, The
C: Maurice Lennon
Z: Malcolm Reavell
N: Transposed to E
M: 4/4
L: 1/8
R: reel
K: EMaj
|: E3 c BG G2 | BGBc BGFG | EGBe Bcec | BEGB cF F2 |
cF F2 cFBA | GBAF GEFD | Ee e2 eBcA | GBAF GE E2 :|
|: F3 G FB, B,2 | FGAB AGFG | E2 BE cEBE | GBed cBAG |
F3 G FB, B,2 | FGAB AGFG | Ee e2 eBcA | GBAF GE E2 :|
